release/img/level2.svg

<svg width="930" height="1028" viewBox="0 0 930 1028" fill="none" xmlns="http://www.w3.org/2000/svg">
<g clip-path="url(#clip0_79_248)">
<path fill-rule="evenodd" clip-rule="evenodd" d="M801.016 435.961C803.589 436.963 804.863 439.861 803.861 442.434L801.618 448.196C800.941 449.934 801.802 451.892 803.54 452.568V452.568C805.278 453.245 807.235 452.384 807.912 450.647L810.155 444.884C811.156 442.311 814.055 441.037 816.628 442.039L822.39 444.282C824.128 444.959 826.085 444.098 826.762 442.36V442.36C827.438 440.622 826.578 438.665 824.84 437.989L819.078 435.745C816.505 434.744 815.231 431.845 816.232 429.272L818.476 423.51C819.152 421.772 818.292 419.815 816.554 419.138V419.138C814.816 418.462 812.859 419.322 812.182 421.06L809.939 426.822C808.937 429.395 806.039 430.669 803.466 429.668L797.704 427.424C795.966 426.748 794.008 427.608 793.332 429.346V429.346C792.655 431.084 793.516 433.041 795.254 433.718L801.016 435.961Z" fill="#1FAD96"/>
<circle cx="692.071" cy="100.5" r="13.5" stroke="#1FAD96" stroke-width="7"/>
<path d="M1.5451 720.698C1.17364 716.867 5.08869 714.071 8.5922 715.665L31.0127 725.864C34.5162 727.458 34.9805 732.247 31.8485 734.484L11.8051 748.801C8.6731 751.038 4.29372 749.046 3.92226 745.215L1.5451 720.698Z" fill="#1FAD96"/>
<rect x="26.8418" y="209" width="31.0005" height="31.0005" rx="5" transform="rotate(17.4014 26.8418 209)" fill="#1FAD96"/>
</g>
<defs>
<clipPath id="clip0_79_248">
<rect width="929.571" height="1028" fill="white"/>
</clipPath>
</defs>
</svg>

<svg xmlns="http://www.w3.org/2000/svg" width="930" height="1028" fill="none" viewBox="0 0 930 1028">
  <g clip-path="url(#a)">
    <path fill="#1FAD96" fill-rule="evenodd" d="M801.016 435.961a5 5 0 0 1 2.845 6.473l-2.243 5.762a3.377 3.377 0 0 0 6.294 2.451l2.243-5.763a5 5 0 0 1 6.473-2.845l5.762 2.243a3.376 3.376 0 1 0 2.45-6.293l-5.762-2.244a5 5 0 0 1-2.846-6.473l2.244-5.762a3.378 3.378 0 0 0-6.294-2.45l-2.243 5.762a5.001 5.001 0 0 1-6.473 2.846l-5.762-2.244a3.377 3.377 0 1 0-2.45 6.294l5.762 2.243Z" clip-rule="evenodd"/>
    <circle cx="692.071" cy="100.5" r="13.5" stroke="#1FAD96" stroke-width="7"/>
    <path fill="#1FAD96" d="M1.545 720.698c-.371-3.831 3.544-6.627 7.047-5.033l22.42 10.199c3.504 1.594 3.968 6.383.837 8.62l-20.044 14.317c-3.132 2.237-7.511.245-7.883-3.586l-2.377-24.517Z"/>
    <rect width="31" height="31" x="26.842" y="209" fill="#1FAD96" rx="5" transform="rotate(17.401 26.842 209)"/>
  </g>
  <defs>
    <clipPath id="a">
      <path fill="#fff" d="M0 0h929.571v1028H0z"/>
    </clipPath>
  </defs>
</svg>
